themes/blank/images/socialMediaSprite.svg

<svg xmlns="http://www.w3.org/2000/svg" xmlns:xlink="http://www.w3.org/1999/xlink" id="socialMediaSprite" version="1.1" viewBox="0 0 247 51">
    <title>
        Social Icon Media Sprite
    </title>
    <defs>
        <polygon id="path-1" points="0 0 48 0 48 48 0 48"/>
    </defs>
    <g fill="none" fill-rule="evenodd" stroke="none" stroke-width="1">
        <g id="twitter" fill="#000000" fill-rule="nonzero" transform="translate(2.000000, 7.000000)">
            <path id="_Path_" d="M41.4617699,6.00318434 C43.4755017,4.8042169 44.982393,2.91754804 45.7015744,0.694833896 C43.8088297,1.81261069 41.7379318,2.60010324 39.5784126,3.02326565 C36.5891765,-0.138166655 31.8404109,-0.911466092 27.9943349,1.13688892 C24.1482589,3.18524393 22.1610869,7.54598969 23.1468531,11.7744362 C15.3929868,11.388257 8.16857176,7.74423717 3.27193496,1.74945909 C0.713136552,6.13393453 2.01965428,11.7423134 6.2561198,14.5594187 C4.72490034,14.5117398 3.22736355,14.1002399 1.88854871,13.359278 C1.88787543,13.3993803 1.88771963,13.4394771 1.88771963,13.4799005 C1.88851366,18.0476362 5.12344708,21.9823632 9.62274733,22.8881999 C8.20269224,23.2720781 6.71330341,23.3282977 5.26810202,23.0525735 C6.53086084,26.961041 10.150559,29.6387478 14.2757371,29.7160591 C10.8601328,32.3834332 6.64212653,33.8300755 2.3002149,33.8232832 C1.53150154,33.8234817 0.763440248,33.7787456 0,33.6893062 C4.40896739,36.5085042 9.54042186,38.0050002 14.781239,37.9999874 C32.5176063,37.9999874 42.2164115,23.3796651 42.2164115,10.7004436 C42.2164115,10.2844528 42.2071229,9.87071181 42.1885457,9.45922054 C44.076275,8.10128566 45.7055847,6.41934396 47,4.49234056 C45.2400918,5.26828868 43.3733042,5.77755326 41.4617699,6.00318434 Z"/>
        </g>
        <path id="instagram" fill="#000000" fill-rule="nonzero" d="M98,43.8433651 C97.9824419,47.2361249 95.2364905,49.9822209 91.8436893,50 L56.1563107,50 C52.7634709,49.9823133 50.0174657,47.2361635 50,43.8433651 L50,8.15663485 C50.0174657,4.76383652 52.7634709,2.01768674 56.1563107,2 L91.8436893,2 C95.2364905,2.0177791 97.9824419,4.76387506 98,8.15663485 L98,43.8433651 Z M92.5626734,22.3125388 L88.3437632,22.3125388 C88.7586489,23.6373821 88.9693797,25.0176754 88.9687099,26.4059604 C88.907176,30.3056382 87.2987051,34.0210831 84.4972692,36.7346467 C81.6958333,39.4482102 77.9310029,40.9375229 74.0312945,40.8748355 C65.9209114,40.9920901 59.2492163,34.5161393 59.1250783,26.4059604 C59.1243097,25.0176679 59.3350427,23.6373597 59.7500249,22.3125388 L55.3435696,22.3125388 L55.3436071,42.5626801 C55.3404242,43.0692281 55.5402726,43.5559456 55.8985054,43.9140986 C56.2567383,44.2722515 56.7435039,44.4719948 57.2500576,44.4687054 L90.656385,44.4687054 C91.162918,44.4719872 91.6496588,44.2722349 92.0078581,43.9140778 C92.3660574,43.5559207 92.5658634,43.0692071 92.5626349,42.5626801 L92.5626734,22.3125388 Z M74.0313045,16.5624915 C68.7945925,16.4886663 64.4874814,20.6699049 64.4060662,25.9064388 C64.4877495,31.1427622 68.7947996,35.3236723 74.0313045,35.249784 C76.5509497,35.2917047 78.9840049,34.3307667 80.7949981,32.5784552 C82.6059913,30.8261437 83.6465052,28.4260669 83.6875413,25.9064388 C83.646642,23.3867079 82.6061903,20.9864847 80.7951832,19.234043 C78.9841761,17.4816013 76.5510406,16.5205683 74.0312945,16.5624614 L74.0313045,16.5624915 Z M92.5626349,9.49990812 C92.5600558,8.31016066 91.5959729,7.34644422 90.4062096,7.34430269 L84.9688345,7.34430269 C83.7791382,7.34652711 82.8151611,8.3102274 82.81261,9.49990812 L82.81261,14.6564361 C82.8150331,15.8462985 83.7789574,16.8103004 84.9688345,16.8128343 L90.4061996,16.8128343 C91.5961459,16.8103888 92.5601793,15.8463675 92.5626249,14.6564361 L92.5626349,9.49990812 Z"/>
        <g id="linkedin" transform="translate(99.000000, 2.000000)">
            <mask id="mask-2" fill="white">
                <use xlink:href="#path-1"/>
            </mask>
            <g id="Clip-2"/>
            <path id="Fill-1" fill="#000000" d="M40.9014319,40.9023333 L33.7868641,40.9023333 L33.7868641,29.7626667 C33.7868641,27.105 33.7381981,23.6883333 30.0875821,23.6883333 C26.3826336,23.6883333 25.8153081,26.5823333 25.8153081,29.5703333 L25.8153081,40.9023333 L18.7010736,40.9023333 L18.7010736,17.9953333 L25.5306454,17.9953333 L25.5306454,21.125 L25.6253108,21.125 C26.5752976,19.3243333 28.8975986,17.4253333 32.3612172,17.4253333 C39.5704504,17.4253333 40.9014319,22.1696667 40.9014319,28.3373333 L40.9014319,40.9023333 Z M10.6778517,14.864 C8.39588339,14.864 6.54890904,13.0136667 6.54890904,10.735 C6.54890904,8.458 8.39588339,6.60833333 10.6778517,6.60833333 C12.9538201,6.60833333 14.8034611,8.458 14.8034611,10.735 C14.8034611,13.0136667 12.9538201,14.864 10.6778517,14.864 Z M7.11656783,40.9023333 L14.2361356,40.9023333 L14.2361356,17.9953333 L7.11656783,17.9953333 L7.11656783,40.9023333 Z M44.4470493,0 L3.54295079,0 C1.58831127,0 0,1.54933333 0,3.45966667 L0,44.5363333 C0,46.4483333 1.58831127,48 3.54295079,48 L44.4470493,48 C46.4050222,48 48,46.4483333 48,44.5363333 L48,3.45966667 C48,1.54933333 46.4050222,0 44.4470493,0 Z" mask="url(#mask-2)"/>
        </g>
        <g id="dribbble" fill="#000000" transform="translate(148.000000, 2.000000)">
            <path id="Shape" d="M24,0 C10.75056,0 0,10.75056 0,24 C0,37.24944 10.75056,48 24,48 C37.223424,48 48,37.24944 48,24 C48,10.75056 37.223424,0 24,0 Z M39.85248,11.062896 C42.715824,14.55096 44.43384,19.002192 44.48592,23.817792 C43.80912,23.687616 37.041216,22.308048 30.22128,23.167008 C30.065088,22.828656 29.934912,22.464192 29.778768,22.099776 C29.362272,21.11064 28.893696,20.09544 28.425168,19.13232 C35.973984,16.060752 39.409968,11.635584 39.85248,11.062896 Z M24,3.5401296 C29.20608,3.5401296 33.969648,5.4924 37.58784,8.694144 C37.223424,9.214752 34.125792,13.3536 26.837328,16.086768 C23.479392,9.917568 19.75704,4.86768 19.1844,4.086768 C20.72016,3.7223424 22.334064,3.5401296 24,3.5401296 Z M15.27984,5.466384 C15.826464,6.195216 19.47072,11.271168 22.880688,17.310192 C13.30152,19.861152 4.841664,19.80912 3.9305856,19.8091999 C5.258112,13.457712 9.553152,8.173536 15.27984,5.466384 Z M3.4880688,24.026016 C3.4880688,23.817792 3.4880688,23.609568 3.4880688,23.401296 C4.3731024,23.427312 14.31672,23.557488 24.546624,20.48592 C25.145328,21.631248 25.691952,22.802592 26.21256,23.973984 C25.952256,24.05208 25.665936,24.130176 25.405632,24.208224 C14.837328,27.61824 9.214752,36.937104 8.746224,37.718016 C5.4924,34.099776 3.4880688,29.284176 3.4880688,24.026016 Z M24,44.511936 C19.262496,44.511936 14.88936,42.898032 11.427312,40.19088 C11.791776,39.436032 15.95664,31.41864 27.51408,27.383952 C27.56616,27.357936 27.592176,27.357936 27.644256,27.331872 C30.533616,34.802592 31.705008,41.075904 32.017344,42.872016 C29.54448,43.939248 26.837328,44.511936 24,44.511936 Z M35.42736,40.997856 C35.219088,39.748368 34.12584,33.761376 31.444704,26.394816 C37.874208,25.379616 43.496736,27.045552 44.199552,27.27984 C43.314528,32.980464 40.034688,37.900224 35.42736,40.997856 Z"/>
        </g>
        <g id="github" fill="#161514" transform="translate(197.000000, 2.000000)">
            <path d="M23.99779,0 C10.7465545,0 0,10.777509 0,24.073169 C0,34.7088104 6.87608582,43.730707 16.4130268,46.9138627 C17.6138003,47.1355309 18.0513828,46.3922035 18.0513828,45.753799 C18.0513828,45.1833728 18.030756,43.6686399 18.0189693,41.6603258 C11.3432579,43.1144694 9.93474324,38.4328365 9.93474324,38.4328365 C8.84299702,35.6516392 7.26946806,34.9112673 7.26946806,34.9112673 C5.09039565,33.4187013 7.43448234,33.4482571 7.43448234,33.4482571 C9.84339605,33.6182027 11.1104699,35.9294634 11.1104699,35.9294634 C13.2512355,39.6076781 16.7283219,38.5451484 18.095583,37.9289107 C18.3136376,36.3742776 18.9339145,35.3132257 19.6190184,34.7117659 C14.2899414,34.104395 8.6868228,32.0384472 8.6868228,22.8140935 C8.6868228,20.1865862 9.62239479,18.0364044 11.1576169,16.3546815 C10.9100955,15.7458328 10.0864974,13.2971378 11.3933515,9.98393676 C11.3933515,9.98393676 13.4074097,9.33666555 17.9924491,12.451843 C19.90632,11.9168837 21.9601584,11.6508818 24.0007367,11.6405373 C26.0398416,11.6508818 28.0922066,11.9168837 30.0090242,12.451843 C34.591117,9.33666555 36.6022284,9.98393676 36.6022284,9.98393676 C37.9120292,13.2971378 37.0884312,15.7458328 36.8423831,16.3546815 C38.3805519,18.0364044 39.3087572,20.1865862 39.3087572,22.8140935 C39.3087572,32.0620918 33.6967986,34.0970061 28.3515148,34.6925547 C29.2119463,35.4358821 29.9795574,36.9048035 29.9795574,39.1510415 C29.9795574,42.3681864 29.9500905,44.9646601 29.9500905,45.753799 C29.9500905,46.3981146 30.383253,47.1473532 31.6002333,46.9123849 C41.1298075,43.7218403 48,34.7058548 48,24.073169 C48,10.777509 37.2534455,0 23.99779,0"/>
        </g>
    </g>
</svg>

<?xml version="1.0" encoding="utf-8"?>
<!-- Generator: Adobe Illustrator 23.0.2, SVG Export Plug-In . SVG Version: 6.00 Build 0)  -->
<svg version="1.1" id="sprite" xmlns="http://www.w3.org/2000/svg" xmlns:xlink="http://www.w3.org/1999/xlink" x="0px" y="0px"
	 viewBox="0 0 247 51" style="enable-background:new 0 0 247 51;" xml:space="preserve">
<style type="text/css">
	.st0{fill-rule:evenodd;clip-rule:evenodd;}
</style>
<g id="Social-Icon-Media-Sprite">
	<g id="twitter" transform="translate(2 7)">
		<path id="_Path_" class="st0" d="M41.5,6c2-1.2,3.5-3.1,4.2-5.3c-1.9,1.1-4,1.9-6.1,2.3c-3-3.2-7.7-3.9-11.6-1.9
			c-3.8,2-5.8,6.4-4.8,10.6c-7.7-0.4-15-4-19.9-10c-2.6,4.4-1.3,10,3,12.8c-1.5,0-3-0.5-4.4-1.2l0,0.1c0,4.6,3.2,8.5,7.7,9.4
			c-1.4,0.4-2.9,0.4-4.4,0.2c1.3,3.9,4.9,6.6,9,6.7c-3.4,2.7-7.6,4.1-12,4.1c-0.8,0-1.5,0-2.3-0.1C4.4,36.5,9.5,38,14.8,38
			c17.7,0,27.4-14.6,27.4-27.3c0-0.4,0-0.8,0-1.2c1.9-1.4,3.5-3,4.8-5C45.2,5.3,43.4,5.8,41.5,6L41.5,6z"/>
	</g>
	<g id="instagram_1_">
		<path id="instagram" d="M98,43.8c0,3.4-2.8,6.1-6.2,6.2H56.2c-3.4,0-6.1-2.8-6.2-6.2V8.2C50,4.8,52.8,2,56.2,2h35.7
			C95.2,2,98,4.8,98,8.2C98,8.2,98,43.8,98,43.8z M92.6,22.3h-4.2c0.4,1.3,0.6,2.7,0.6,4.1C88.8,34.5,82.2,41,74,40.9c0,0,0,0,0,0
			c-8.1,0.1-14.8-6.4-14.9-14.5c0-1.4,0.2-2.8,0.6-4.1h-4.4v20.2c0,1,0.8,1.9,1.9,1.9c0,0,0,0,0,0h33.4c1,0,1.9-0.8,1.9-1.9
			c0,0,0,0,0,0L92.6,22.3L92.6,22.3z M74,16.6c-5.2-0.1-9.5,4.1-9.6,9.3c0.1,5.2,4.4,9.4,9.6,9.3c5.2,0.1,9.6-4.1,9.7-9.3
			c0,0,0,0,0,0C83.6,20.7,79.3,16.5,74,16.6C74,16.6,74,16.6,74,16.6L74,16.6z M92.6,9.5c0-1.2-1-2.2-2.2-2.2H85
			c-1.2,0-2.2,1-2.2,2.2v5.2c0,1.2,1,2.2,2.2,2.2h5.4c1.2,0,2.2-1,2.2-2.2C92.6,14.7,92.6,9.5,92.6,9.5z"/>
	</g>
	<g id="linkedin" transform="translate(99 2)">
		<path class="st0" d="M40.9,40.9h-7.1V29.8c0-2.7,0-6.1-3.7-6.1c-3.7,0-4.3,2.9-4.3,5.9v11.3h-7.1V18h6.8v3.1h0.1
			c1-1.8,3.3-3.7,6.7-3.7c7.2,0,8.5,4.7,8.5,10.9C40.9,28.3,40.9,40.9,40.9,40.9z M10.7,14.9c-2.3-0.1-4.1-1.9-4-4.2
			c0-2.2,1.8-4,4-4c2.3,0,4.1,1.8,4.1,4.1C14.8,13,13,14.9,10.7,14.9z M7.1,40.9h7.1V18H7.1C7.1,18,7.1,40.9,7.1,40.9z M44.4,0H3.5
			C1.6,0,0,1.5,0,3.5v41.1C0,46.4,1.6,48,3.5,48h40.9c2,0,3.6-1.6,3.6-3.5V3.5C48,1.5,46.4,0,44.4,0z"/>
	</g>
	<g id="dribbble" transform="translate(148 2)">
		<path id="Shape" class="st0" d="M24,0C10.8,0,0,10.8,0,24s10.8,24,24,24c13.2,0,24-10.8,24-24S37.2,0,24,0z M39.9,11.1
			c3,3.6,4.6,8.1,4.6,12.8c-0.7-0.1-7.4-1.5-14.3-0.7c-0.2-0.3-0.3-0.7-0.4-1.1c-0.4-1-0.9-2-1.4-3C36,16.1,39.4,11.6,39.9,11.1
			L39.9,11.1z M24,3.5c5.2,0,10,2,13.6,5.2c-0.4,0.5-3.5,4.7-10.8,7.4c-3.4-6.2-7.1-11.2-7.7-12C20.8,3.7,22.4,3.5,24,3.5z
			 M15.3,5.5c0.5,0.7,4.2,5.8,7.6,11.8c-9.6,2.6-18,2.5-19,2.5C5.3,13.5,9.6,8.2,15.3,5.5L15.3,5.5z M3.5,24v-0.6
			c0.9,0,10.8,0.2,21.1-2.9c0.6,1.1,1.1,2.3,1.7,3.5c-0.3,0.1-0.5,0.2-0.8,0.2C14.8,27.6,9.2,36.9,8.7,37.7C5.4,34,3.5,29.1,3.5,24z
			 M24,44.5c-4.7,0-9.1-1.6-12.6-4.3c0.4-0.8,4.5-8.8,16.1-12.8c0.1,0,0.1,0,0.1-0.1c2.9,7.5,4.1,13.7,4.4,15.5
			C29.5,44,26.8,44.5,24,44.5z M35.4,41c-0.2-1.2-1.3-7.2-4-14.6c6.4-1,12.1,0.6,12.8,0.9C43.3,33,40,37.9,35.4,41z"/>
	</g>
	<g id="github_1_">
		<path id="github" class="st0" d="M221,2c-13.3,0-24,10.8-24,24.1c0,10.6,6.9,19.7,16.4,22.8c1.2,0.2,1.6-0.5,1.6-1.2
			c0-0.6,0-2.1,0-4.1c-6.7,1.5-8.1-3.2-8.1-3.2c-1.1-2.8-2.7-3.5-2.7-3.5c-2.2-1.5,0.2-1.5,0.2-1.5c2.4,0.2,3.7,2.5,3.7,2.5
			c2.1,3.7,5.6,2.6,7,2c0.2-1.6,0.8-2.6,1.5-3.2c-5.3-0.6-10.9-2.7-10.9-11.9c0-2.6,0.9-4.8,2.5-6.5c-0.2-0.6-1.1-3.1,0.2-6.4
			c0,0,2-0.6,6.6,2.5c1.9-0.5,4-0.8,6-0.8c2,0,4.1,0.3,6,0.8c4.6-3.1,6.6-2.5,6.6-2.5c1.3,3.3,0.5,5.8,0.2,6.4
			c1.5,1.7,2.5,3.8,2.5,6.5c0,9.2-5.6,11.3-11,11.9c0.9,0.7,1.6,2.2,1.6,4.5c0,3.2,0,5.8,0,6.6c0,0.6,0.4,1.4,1.7,1.2
			c9.5-3.2,16.4-12.2,16.4-22.8C245,12.8,234.3,2,221,2"/>
	</g>
</g>
</svg>
